X: 1
T: Schottis from Blyberg
T: Blyberg schottis
C: trad.
O: Blyberg, \"Alvdalen, Sweden
R: shottish
S: Fiddle Hell Online 2021 workshop handout
Z: 2021 John Chambers <jc:trillian.mit.edu> 2021-05-26
M: C
L: 1/8
K: D
|:\
vD>FAF D>FAF | G>ABA G2G2 | A>cec A>cec | d>efe d2d2 |
vD>FAF D>FAF | G>ABA G2G2 | A>cec A>cec | vd2d2 vd4 :|
|:\
vA2f2 f>edc | B2g2 g>fed | c2a2 a2^ga | b>afd A4 |
vA2f2 f>edc | B2g2 g>fed | c2a2 a>gec | vd2d2 vd4 :|
